bootstrap/cloud-download-fill.svg

<svg xmlns="http://www.w3.org/2000/svg" width="16" height="16" fill="currentColor" class="bi bi-cloud-download-fill" viewBox="0 0 16 16">
  <path fill-rule="evenodd" d="M8 0a5.53 5.53 0 0 0-3.594 1.342c-.766.66-1.321 1.52-1.464 2.383C1.266 4.095 0 5.555 0 7.318 0 9.366 1.708 11 3.781 11H7.5V5.5a.5.5 0 0 1 1 0V11h4.188C14.502 11 16 9.57 16 7.773c0-1.636-1.242-2.969-2.834-3.194C12.923 1.999 10.69 0 8 0m-.354 15.854a.5.5 0 0 0 .708 0l3-3a.5.5 0 0 0-.708-.708L8.5 14.293V11h-1v3.293l-2.146-2.147a.5.5 0 0 0-.708.708z"/>
</svg>

<svg viewBox="0 0 16 16" xmlns="http://www.w3.org/2000/svg"><path fill-rule="evenodd" d="M8 0v0C6.68 0 5.4.48 4.4 1.34 3.63 2 3.07 2.86 2.93 3.723c-1.68.37-2.95 1.83-2.95 3.593 0 2.04 1.708 3.68 3.781 3.68H7.48v-5.5 0c0-.28.22-.5.5-.5 .27 0 .5.22.5.5v5.5h4.18c1.81 0 3.31-1.43 3.31-3.23 0-1.64-1.25-2.97-2.84-3.194 -.25-2.58-2.48-4.58-5.166-4.58Zm-.36 15.85h0c.19.19.51.19.7 0 0-.01 0-.01 0-.01l3-3v0c.19-.2.19-.52 0-.71 -.2-.2-.52-.2-.71-.001l-2.15 2.14v-3.3h-1v3.29l-2.146-2.15H5.33c-.2-.2-.52-.2-.71 0 -.2.19-.2.51-.001.7l3 3Z"/></svg>
